packages/foundations/assets/icons/functional/images/technology/light_bulb_28.svg

<svg width="28" height="28" viewBox="0 0 28 28" fill="none" xmlns="http://www.w3.org/2000/svg">
<g clip-path="url(#clip0_187_591)">
<path fill-rule="evenodd" clip-rule="evenodd" d="M17.4996 22.75H15.3287C15.3226 22.75 15.3182 22.7465 15.3121 22.7465C15.3059 22.7465 15.3007 22.75 15.2954 22.75H12.7046C12.6984 22.75 12.6941 22.7465 12.6879 22.7465C12.6818 22.7465 12.6766 22.75 12.6713 22.75H10.5004C10.0174 22.75 9.62544 23.1411 9.62544 23.625C9.62544 24.1089 10.0174 24.5 10.5004 24.5H11.8129V25.375C11.8129 25.8589 12.2049 26.25 12.6879 26.25H15.3129C15.7959 26.25 16.1879 25.8589 16.1879 25.375V24.5H17.5004C17.9834 24.5 18.3754 24.1089 18.3754 23.625C18.3754 23.1411 17.9826 22.75 17.4996 22.75ZM17.4996 20.125H10.4996C10.0166 20.125 9.62456 20.5161 9.62456 21C9.62456 21.4839 10.0166 21.875 10.4996 21.875H17.4996C17.9826 21.875 18.3746 21.4839 18.3746 21C18.3746 20.5161 17.9826 20.125 17.4996 20.125ZM14.0004 1.75C18.7289 1.75 22.5754 5.59737 22.5754 10.325C22.5754 13.517 21.1404 15.1034 19.9881 16.3791C19.3143 17.1246 18.7814 17.7135 18.7176 18.4503C18.6791 18.9035 18.3002 19.25 17.8452 19.25L14.0258 19.2447L14.0004 19.25C13.9917 19.25 13.9838 19.2447 13.9751 19.2447L10.1522 19.2395C9.69981 19.2386 9.32181 18.8939 9.28156 18.4433C9.21506 17.71 8.68481 17.1238 8.01194 16.3791C6.85956 15.1043 5.42456 13.517 5.42456 10.325C5.42456 5.5965 9.27106 1.75 14.0004 1.75ZM13.9996 3.49913C10.2362 3.49913 7.17456 6.56075 7.17456 10.3241C7.17456 12.8424 8.25956 14.0437 9.30956 15.2049C9.92556 15.8856 10.5573 16.5848 10.8583 17.4895L13.1246 17.493V15.1585L12.0203 13.6386C11.7359 13.2475 11.8226 12.7006 12.2137 12.4163C12.6057 12.1336 13.1526 12.2203 13.4361 12.6105L13.9996 13.3857L14.5622 12.6105C14.8448 12.2194 15.3926 12.1319 15.7837 12.4163C16.1757 12.7006 16.2623 13.2475 15.9779 13.6386L14.8746 15.1585V17.4956L17.1373 17.4991C17.4374 16.59 18.0709 15.8883 18.6896 15.204C18.7315 15.1576 18.7735 15.111 18.8156 15.0644L19.0669 14.7821C19.9837 13.7358 20.8246 12.5402 20.8246 10.3241C20.8246 6.56075 17.7629 3.49913 13.9996 3.49913ZM11.5277 5.20275C11.9626 4.99188 12.4858 5.173 12.6967 5.60787C12.9076 6.04275 12.7264 6.56687 12.2916 6.77688C11.3999 7.21 10.7069 7.952 10.3412 8.869C10.2047 9.21113 9.87569 9.41938 9.52831 9.41938C9.41981 9.41938 9.31044 9.40013 9.20369 9.35725C8.75481 9.17788 8.53606 8.66863 8.71544 8.21975C9.24394 6.89763 10.2423 5.82663 11.5268 5.20363L11.5277 5.20275Z" fill="#1A1C1F"/>
</g>
<defs>
<clipPath id="clip0_187_591">
<rect width="28" height="28" fill="white"/>
</clipPath>
</defs>
</svg>

<svg xmlns="http://www.w3.org/2000/svg" width="28" height="28" fill="none"><g clip-path="url(#a)"><path fill="#1A1C1F" fill-rule="evenodd" d="M17.5 22.75h-2.171q-.008-.002-.017-.003-.008.002-.017.003h-2.59q-.009-.002-.017-.003-.008.002-.017.003h-2.17a.875.875 0 1 0 0 1.75h1.312v.875c0 .484.392.875.875.875h2.625a.875.875 0 0 0 .875-.875V24.5H17.5a.875.875 0 1 0 0-1.75m0-2.625h-7a.875.875 0 1 0 0 1.75h7a.875.875 0 1 0 0-1.75M14 1.75c4.729 0 8.575 3.847 8.575 8.575 0 3.192-1.435 4.778-2.587 6.054-.674.746-1.207 1.334-1.27 2.071a.874.874 0 0 1-.873.8l-3.82-.005-.025.005c-.008 0-.016-.005-.025-.005l-3.823-.006a.875.875 0 0 1-.87-.796c-.067-.733-.597-1.32-1.27-2.064-1.152-1.275-2.587-2.862-2.587-6.054C5.425 5.597 9.27 1.75 14 1.75m0 1.75a6.833 6.833 0 0 0-6.825 6.824c0 2.518 1.085 3.72 2.135 4.88.616.682 1.247 1.38 1.548 2.285l2.267.004v-2.334l-1.105-1.52a.875.875 0 1 1 1.416-1.028l.564.775.562-.775a.874.874 0 1 1 1.416 1.028l-1.103 1.52v2.337l2.262.003c.3-.909.934-1.61 1.553-2.295l.126-.14.25-.282c.918-1.046 1.759-2.242 1.759-4.458A6.833 6.833 0 0 0 14 3.5m-2.472 1.703a.875.875 0 1 1 .764 1.574 3.95 3.95 0 0 0-1.95 2.092.875.875 0 0 1-1.627-.65 5.7 5.7 0 0 1 2.812-3.015z" clip-rule="evenodd"/></g><defs><clipPath id="a"><path fill="#fff" d="M0 0h28v28H0z"/></clipPath></defs></svg>
